static/assets/img/icons/theme/code/backspace.svg

<svg height="24" viewBox="0 0 24 24" width="24" xmlns="http://www.w3.org/2000/svg"><g fill="none" fill-rule="evenodd"><path d="m0 0h24v24h-24z" opacity="0"/><g fill="#000"><path d="m8.42034438 20h12.57965562c1.1045695 0 2-.8954305 2-2v-12c0-1.1045695-.8954305-2-2-2h-12.57965562c-.26366006 0-.51665141.10412727-.70392292.28972363l-7.06318035 6.99999997c-.39227481.3887659-.39511934 1.0219245-.00635344 1.4141993.00210828.0021273.00422612.0042452.00635344.0063535l7.06318035 7c.18727151.1855963.44026286.2897236.70392292.2897236z" opacity=".3"/><path d="m12.5857864 12-1.4142135-1.4142136c-.3905243-.3905243-.3905243-1.02368923 0-1.41421352.3905243-.3905243 1.0236892-.3905243 1.4142135 0l1.4142136 1.41421352 1.4142136-1.41421352c.3905243-.3905243 1.0236892-.3905243 1.4142135 0 .3905243.39052429.3905243 1.02368922 0 1.41421352l-1.4142135 1.4142136 1.4142135 1.4142136c.3905243.3905243.3905243 1.0236892 0 1.4142135s-1.0236892.3905243-1.4142135 0l-1.4142136-1.4142135-1.4142136 1.4142135c-.3905243.3905243-1.0236892.3905243-1.4142135 0s-.3905243-1.0236892 0-1.4142135z"/></g></g></svg>

<svg width="24px" height="24px" viewBox="0 0 24 24" version="1.1" xmlns="http://www.w3.org/2000/svg" xmlns:xlink="http://www.w3.org/1999/xlink">
    <title>Icon For Backspace</title>
    <g stroke="none" stroke-width="1" fill="none" fill-rule="evenodd">
        <rect opacity="0" x="0" y="0" width="24" height="24"></rect>
        <path d="M8.42034438,20 L21,20 C22.1045695,20 23,19.1045695 23,18 L23,6 C23,4.8954305 22.1045695,4 21,4 L8.42034438,4 C8.15668432,4 7.90369297,4.10412727 7.71642146,4.28972363 L0.653241109,11.2897236 C0.260966303,11.6784895 0.25812177,12.3116481 0.646887666,12.7039229 C0.648995955,12.7060502 0.651113791,12.7081681 0.653241109,12.7102764 L7.71642146,19.7102764 C7.90369297,19.8958727 8.15668432,20 8.42034438,20 Z" fill="#000000" opacity="0.3"></path>
        <path d="M12.5857864,12 L11.1715729,10.5857864 C10.7810486,10.1952621 10.7810486,9.56209717 11.1715729,9.17157288 C11.5620972,8.78104858 12.1952621,8.78104858 12.5857864,9.17157288 L14,10.5857864 L15.4142136,9.17157288 C15.8047379,8.78104858 16.4379028,8.78104858 16.8284271,9.17157288 C17.2189514,9.56209717 17.2189514,10.1952621 16.8284271,10.5857864 L15.4142136,12 L16.8284271,13.4142136 C17.2189514,13.8047379 17.2189514,14.4379028 16.8284271,14.8284271 C16.4379028,15.2189514 15.8047379,15.2189514 15.4142136,14.8284271 L14,13.4142136 L12.5857864,14.8284271 C12.1952621,15.2189514 11.5620972,15.2189514 11.1715729,14.8284271 C10.7810486,14.4379028 10.7810486,13.8047379 11.1715729,13.4142136 L12.5857864,12 Z" fill="#000000"></path>
    </g>
</svg>
